images/shelter.svg

<?xml version="1.0" encoding="UTF-8" standalone="no"?>
<svg xmlns:dc="http://purl.org/dc/elements/1.1/" xmlns:cc="http://creativecommons.org/ns#" xmlns:rdf="http://www.w3.org/1999/02/22-rdf-syntax-ns#" xmlns:svg="http://www.w3.org/2000/svg" xmlns="http://www.w3.org/2000/svg" xmlns:xlink="http://www.w3.org/1999/xlink" xmlns:sodipodi="http://sodipodi.sourceforge.net/DTD/sodipodi-0.dtd" xmlns:inkscape="http://www.inkscape.org/namespaces/inkscape" width="32" height="32" id="svg2" sodipodi:version="0.32" inkscape:version="1.0.1 (3bc2e813f5, 2020-09-07)" version="1.0" sodipodi:docname="shelter.svg" inkscape:output_extension="org.inkscape.output.svg.inkscape" inkscape:export-filename="/home/rudolf/Downloads/mapicons2/Shelter_brown_p16.png" inkscape:export-xdpi="44.985714" inkscape:export-ydpi="44.985714">
  <title id="title3212">Map icon for shelter</title>
  <metadata id="metadata10">
    <rdf:RDF>
      <cc:Work rdf:about="">
        <dc:format>image/svg+xml</dc:format>
        <dc:type rdf:resource="http://purl.org/dc/dcmitype/StillImage" />
        <cc:license rdf:resource="http://creativecommons.org/publicdomain/zero/1.0/" />
        <dc:title>Map icon for shelter</dc:title>
        <dc:creator>
          <cc:Agent>
            <dc:title>Rudolf</dc:title>
          </cc:Agent>
        </dc:creator>
        <dc:date>2012-04-05</dc:date>
      </cc:Work>
      <cc:License rdf:about="http://creativecommons.org/publicdomain/zero/1.0/">
        <cc:permits rdf:resource="http://creativecommons.org/ns#Reproduction" />
        <cc:permits rdf:resource="http://creativecommons.org/ns#Distribution" />
        <cc:permits rdf:resource="http://creativecommons.org/ns#DerivativeWorks" />
      </cc:License>
    </rdf:RDF>
  </metadata>
  <sodipodi:namedview inkscape:window-height="1056" inkscape:window-width="1847" inkscape:pageshadow="2" inkscape:pageopacity="0.0" guidetolerance="10.0" gridtolerance="10.0" objecttolerance="10.0" borderopacity="1.0" bordercolor="#666666" pagecolor="#ffffff" id="base" showgrid="true" inkscape:snap-global="true" inkscape:zoom="33.8125" inkscape:cx="7.5017317" inkscape:cy="11.392345" inkscape:window-x="0" inkscape:window-y="0" inkscape:window-maximized="1" inkscape:current-layer="svg2" showguides="true" inkscape:guide-bbox="true" inkscape:snap-bbox="false" inkscape:snap-grids="true" inkscape:snap-page="false" inkscape:snap-nodes="true" inkscape:object-nodes="true" inkscape:snap-to-guides="false" inkscape:snap-center="true" inkscape:snap-object-midpoints="true" inkscape:snap-midpoints="true" inkscape:snap-smooth-nodes="true" inkscape:object-paths="true" inkscape:snap-intersection-paths="true" fit-margin-top="0" fit-margin-left="0" fit-margin-right="0" fit-margin-bottom="0" inkscape:document-rotation="0" inkscape:pagecheckerboard="true">
    <inkscape:grid type="xygrid" id="grid2383" visible="true" enabled="true" empspacing="2" snapvisiblegridlinesonly="true" />
  </sodipodi:namedview>
  <defs id="defs4">
    <linearGradient inkscape:collect="always" id="linearGradient8588">
      <stop style="stop-color:#010000;stop-opacity:1;" offset="0" id="stop8584" />
      <stop style="stop-color:#010000;stop-opacity:0;" offset="1" id="stop8586" />
    </linearGradient>
    <inkscape:perspective sodipodi:type="inkscape:persp3d" inkscape:vp_x="0 : 526.18109 : 1" inkscape:vp_y="0 : 1000 : 0" inkscape:vp_z="744.09448 : 526.18109 : 1" inkscape:persp3d-origin="372.04724 : 350.78739 : 1" id="perspective10" />
    <inkscape:perspective id="perspective2461" inkscape:persp3d-origin="10 : 6.6666667 : 1" inkscape:vp_z="20 : 10 : 1" inkscape:vp_y="0 : 1000 : 0" inkscape:vp_x="0 : 10 : 1" sodipodi:type="inkscape:persp3d" />
    <inkscape:perspective id="perspective2466" inkscape:persp3d-origin="400 : 200 : 1" inkscape:vp_z="800 : 300 : 1" inkscape:vp_y="0 : 1000 : 0" inkscape:vp_x="0 : 300 : 1" sodipodi:type="inkscape:persp3d" />
    <linearGradient inkscape:collect="always" xlink:href="#linearGradient8588" id="linearGradient8590" x1="1.4179982" y1="7.679631" x2="13.941377" y2="7.679631" gradientUnits="userSpaceOnUse" />
  </defs>
  <path id="path8582" style="color:#000000;font-style:normal;font-variant:normal;font-weight:normal;font-stretch:normal;font-size:medium;line-height:normal;font-family:sans-serif;font-variant-ligatures:normal;font-variant-position:normal;font-variant-caps:normal;font-variant-numeric:normal;font-variant-alternates:normal;font-variant-east-asian:normal;font-feature-settings:normal;font-variation-settings:normal;text-indent:0;text-align:start;text-decoration:none;text-decoration-line:none;text-decoration-style:solid;text-decoration-color:#000000;letter-spacing:normal;word-spacing:normal;text-transform:none;writing-mode:lr-tb;direction:ltr;text-orientation:mixed;dominant-baseline:auto;baseline-shift:baseline;text-anchor:start;white-space:normal;shape-padding:0;shape-margin:0;inline-size:0;clip-rule:nonzero;display:inline;overflow:visible;visibility:visible;isolation:auto;mix-blend-mode:normal;color-interpolation:sRGB;color-interpolation-filters:linearRGB;solid-color:#000000;solid-opacity:1;vector-effect:none;fill:url(#linearGradient8590);fill-opacity:1;fill-rule:nonzero;stroke:#ffffff;stroke-width:3;stroke-linecap:round;stroke-linejoin:round;stroke-miterlimit:4;stroke-dasharray:none;stroke-dashoffset:0;stroke-opacity:0.5;color-rendering:auto;image-rendering:auto;shape-rendering:auto;text-rendering:auto;enable-background:accumulate;stop-color:#000000" d="M 7.6699219 1.4199219 C 7.5563209 1.4219374 7.4467931 1.4625798 7.359375 1.5351562 L 1.5996094 6.3359375 C 1.2391126 6.6352695 1.4513529 7.2215186 1.9199219 7.2207031 L 7.1796875 7.2207031 L 7.1796875 12.939453 L 4.3007812 12.939453 L 4.3007812 13.939453 L 7.1796875 13.939453 L 8.1796875 13.939453 L 11.060547 13.939453 L 11.060547 12.939453 L 8.1796875 12.939453 L 8.1796875 7.2207031 L 13.439453 7.2207031 C 13.908022 7.2215191 14.120263 6.6352696 13.759766 6.3359375 L 8 1.5351562 C 7.9074233 1.4582802 7.7902292 1.4173663 7.6699219 1.4199219 z " />
  <path id="path8561" style="color:#000000;font-style:normal;font-variant:normal;font-weight:normal;font-stretch:normal;font-size:medium;line-height:normal;font-family:sans-serif;font-variant-ligatures:normal;font-variant-position:normal;font-variant-caps:normal;font-variant-numeric:normal;font-variant-alternates:normal;font-variant-east-asian:normal;font-feature-settings:normal;font-variation-settings:normal;text-indent:0;text-align:start;text-decoration:none;text-decoration-line:none;text-decoration-style:solid;text-decoration-color:#000000;letter-spacing:normal;word-spacing:normal;text-transform:none;writing-mode:lr-tb;direction:ltr;text-orientation:mixed;dominant-baseline:auto;baseline-shift:baseline;text-anchor:start;white-space:normal;shape-padding:0;shape-margin:0;inline-size:0;clip-rule:nonzero;display:inline;overflow:visible;visibility:visible;isolation:auto;mix-blend-mode:normal;color-interpolation:sRGB;color-interpolation-filters:linearRGB;solid-color:#000000;solid-opacity:1;vector-effect:none;fill:#010000;fill-opacity:1;fill-rule:nonzero;stroke:none;stroke-width:1;stroke-linecap:round;stroke-linejoin:round;stroke-miterlimit:4;stroke-dasharray:none;stroke-dashoffset:0;stroke-opacity:1;color-rendering:auto;image-rendering:auto;shape-rendering:auto;text-rendering:auto;enable-background:accumulate;stop-color:#000000" d="M 7.6699219 1.4199219 C 7.5563209 1.4219374 7.4467931 1.4625798 7.359375 1.5351562 L 1.5996094 6.3359375 C 1.2391126 6.6352695 1.4513529 7.2215186 1.9199219 7.2207031 L 7.1796875 7.2207031 L 7.1796875 12.939453 L 4.3007812 12.939453 L 4.3007812 13.939453 L 7.1796875 13.939453 L 8.1796875 13.939453 L 11.060547 13.939453 L 11.060547 12.939453 L 8.1796875 12.939453 L 8.1796875 7.2207031 L 13.439453 7.2207031 C 13.908022 7.2215191 14.120263 6.6352696 13.759766 6.3359375 L 8 1.5351562 C 7.9074233 1.4582802 7.7902292 1.4173663 7.6699219 1.4199219 z " />
</svg>

<svg xmlns="http://www.w3.org/2000/svg" xmlns:xlink="http://www.w3.org/1999/xlink" width="32" height="32" version="1.0">
    <defs>
        <linearGradient id="a">
            <stop offset="0" stop-color="#010000"/>
            <stop offset="1" stop-color="#010000" stop-opacity="0"/>
        </linearGradient>
        <linearGradient xlink:href="#a" id="b" x1="1.418" y1="7.68" x2="13.941" y2="7.68" gradientUnits="userSpaceOnUse"/>
    </defs>
    <path d="M7.67 1.42a.5.5 0 00-.31.115l-5.76 4.8a.5.5 0 00.32.886h5.26v5.718H4.3v1h6.76v-1H8.18V7.221h5.26a.5.5 0 00.32-.885L8 1.536a.5.5 0 00-.33-.116z" color="#000" fill="url(#b)" stroke="#fff" stroke-width="3" stroke-linecap="round" stroke-linejoin="round" stroke-opacity=".5"/>
    <path d="M7.67 1.42a.5.5 0 00-.31.115l-5.76 4.8a.5.5 0 00.32.886h5.26v5.718H4.3v1h6.76v-1H8.18V7.221h5.26a.5.5 0 00.32-.885L8 1.536a.5.5 0 00-.33-.116z" color="#000" fill="#010000"/>
</svg>
